X: 10522
M: C|
L: 1/8
K: F
uC2 |\
a(^gaf) cfAf | dfcf dfcf | a(^gaf) cdef | {g}=g^fga g2(=fg) |
a(^gaf) cfAf | dfcf dfcf | (de)fd (ef)ge | [f2A2][a2c2] [f2A2] :|


